icons/evolvere-blue-folders-flat-vivid-dark-fallback/apps/64/winetricks.svg

<?xml version="1.0" encoding="UTF-8" standalone="no"?>
<!-- Created with Inkscape (http://www.inkscape.org/) -->

<svg
   xmlns:dc="http://purl.org/dc/elements/1.1/"
   xmlns:cc="http://creativecommons.org/ns#"
   xmlns:rdf="http://www.w3.org/1999/02/22-rdf-syntax-ns#"
   xmlns:svg="http://www.w3.org/2000/svg"
   xmlns="http://www.w3.org/2000/svg"
   xmlns:xlink="http://www.w3.org/1999/xlink"
   xmlns:sodipodi="http://sodipodi.sourceforge.net/DTD/sodipodi-0.dtd"
   xmlns:inkscape="http://www.inkscape.org/namespaces/inkscape"
   width="64"
   height="64"
   id="svg13094"
   version="1.1"
   inkscape:version="0.48.4 r9939"
   sodipodi:docname="winetricks.svg">
  <sodipodi:namedview
     id="base"
     pagecolor="#ffffff"
     bordercolor="#666666"
     borderopacity="1.0"
     inkscape:pageopacity="0"
     inkscape:pageshadow="2"
     inkscape:zoom="11.313709"
     inkscape:cx="35.395373"
     inkscape:cy="31.3594"
     inkscape:document-units="px"
     inkscape:current-layer="svg13094"
     showgrid="false"
     inkscape:snap-bbox="true"
     inkscape:bbox-paths="true"
     inkscape:bbox-nodes="true"
     inkscape:snap-bbox-edge-midpoints="true"
     inkscape:snap-bbox-midpoints="true"
     inkscape:object-paths="true"
     inkscape:snap-intersection-paths="true"
     inkscape:object-nodes="true"
     inkscape:snap-smooth-nodes="true"
     inkscape:snap-midpoints="true"
     inkscape:snap-object-midpoints="true"
     inkscape:snap-center="true"
     showguides="false"
     inkscape:guide-bbox="true"
     inkscape:window-width="1920"
     inkscape:window-height="1025"
     inkscape:window-x="-2"
     inkscape:window-y="32"
     inkscape:window-maximized="1"
     inkscape:snap-global="true"
     fit-margin-top="0"
     fit-margin-left="0"
     fit-margin-right="0"
     fit-margin-bottom="0"
     showborder="true"
     inkscape:showpageshadow="false"
     inkscape:snap-page="true">
    <inkscape:grid
       type="xygrid"
       id="grid3075"
       empspacing="5"
       visible="true"
       enabled="true"
       snapvisiblegridlinesonly="true"
       originx="1.6362304e-08px"
       originy="18px" />
    <sodipodi:guide
       orientation="0,1"
       position="-11,30"
       id="guide9148" />
    <sodipodi:guide
       orientation="1,0"
       position="32,70"
       id="guide9150" />
  </sodipodi:namedview>
  <defs
     id="defs13096">
    <linearGradient
       inkscape:collect="always"
       xlink:href="#linearGradient5199-8-3"
       id="linearGradient4389-1-4"
       gradientUnits="userSpaceOnUse"
       gradientTransform="translate(0,-2)"
       x1="29"
       y1="16"
       x2="29"
       y2="20" />
    <linearGradient
       id="linearGradient5199-8-3">
      <stop
         style="stop-color:#2b3137;stop-opacity:1;"
         offset="0"
         id="stop5201-3-8" />
      <stop
         style="stop-color:#657281;stop-opacity:1;"
         offset="1"
         id="stop5203-2-5" />
    </linearGradient>
    <radialGradient
       inkscape:collect="always"
       xlink:href="#linearGradient4181-0-5"
       id="radialGradient4391-9-6"
       gradientUnits="userSpaceOnUse"
       gradientTransform="matrix(0,1.7071061,-1.5253819,0,94.702835,16.976673)"
       cx="19.091883"
       cy="49.568542"
       fx="19.091883"
       fy="49.568542"
       r="7" />
    <linearGradient
       id="linearGradient4181-0-5">
      <stop
         style="stop-color:#131e27;stop-opacity:0.48480931;"
         offset="0"
         id="stop4183-0-4" />
      <stop
         id="stop4185-4-1"
         offset="0.40826604"
         style="stop-color:#131e27;stop-opacity:0.2449903;" />
      <stop
         style="stop-color:#131e27;stop-opacity:0;"
         offset="1"
         id="stop4187-5-7" />
    </linearGradient>
    <radialGradient
       inkscape:collect="always"
       xlink:href="#linearGradient3823-1-9"
       id="radialGradient4393-1-2"
       gradientUnits="userSpaceOnUse"
       gradientTransform="matrix(1.2193623,1.2193623,-0.85714249,0.85714249,6.1402817,-47.6031)"
       cx="40.726189"
       cy="17.933647"
       fx="40.726189"
       fy="17.933647"
       r="5" />
    <linearGradient
       id="linearGradient3823-1-9">
      <stop
         style="stop-color:#dadee2;stop-opacity:1;"
         offset="0"
         id="stop3825-1-7" />
      <stop
         id="stop4989-4-4"
         offset="0.28217158"
         style="stop-color:#bec4cb;stop-opacity:1;" />
      <stop
         style="stop-color:#616e7e;stop-opacity:1;"
         offset="1"
         id="stop3827-3-0" />
    </linearGradient>
    <linearGradient
       inkscape:collect="always"
       xlink:href="#linearGradient4991-9-4"
       id="linearGradient3065-8"
       gradientUnits="userSpaceOnUse"
       x1="41"
       y1="18"
       x2="47.535534"
       y2="24.535534" />
    <linearGradient
       id="linearGradient4991-9-4">
      <stop
         style="stop-color:#49525f;stop-opacity:1;"
         offset="0"
         id="stop4993-8-4" />
      <stop
         style="stop-color:#939dac;stop-opacity:1;"
         offset="1"
         id="stop4995-9-2" />
    </linearGradient>
    <linearGradient
       inkscape:collect="always"
       xlink:href="#linearGradient5199-8-3"
       id="linearGradient4419-1"
       gradientUnits="userSpaceOnUse"
       gradientTransform="translate(0,-2)"
       x1="29"
       y1="16"
       x2="29"
       y2="20" />
    <linearGradient
       inkscape:collect="always"
       xlink:href="#linearGradient4421-6-9"
       id="linearGradient4459-9"
       gradientUnits="userSpaceOnUse"
       gradientTransform="translate(0,-2)"
       x1="29"
       y1="16"
       x2="29"
       y2="20" />
    <linearGradient
       id="linearGradient4421-6-9">
      <stop
         id="stop4423-0-4"
         offset="0"
         style="stop-color:#275cb1;stop-opacity:1;" />
      <stop
         id="stop4425-1-7"
         offset="1"
         style="stop-color:#308ae2;stop-opacity:1;" />
    </linearGradient>
    <radialGradient
       inkscape:collect="always"
       xlink:href="#linearGradient4763-5-0"
       id="radialGradient4783-5"
       gradientUnits="userSpaceOnUse"
       gradientTransform="matrix(1,0,0,0.11428571,0,14.171429)"
       cx="26.5"
       cy="16"
       fx="26.5"
       fy="16"
       r="17.5" />
    <linearGradient
       id="linearGradient4763-5-0">
      <stop
         style="stop-color:#62c2ff;stop-opacity:1;"
         offset="0"
         id="stop4765-9-1" />
      <stop
         id="stop4771-4-7"
         offset="0.5"
         style="stop-color:#55abff;stop-opacity:0.49803922;" />
      <stop
         style="stop-color:#55abff;stop-opacity:0;"
         offset="1"
         id="stop4767-0-7" />
    </linearGradient>
    <radialGradient
       inkscape:collect="always"
       xlink:href="#linearGradient4181-0-5"
       id="radialGradient4827-2"
       gradientUnits="userSpaceOnUse"
       gradientTransform="matrix(9.1382209e-8,1.7071061,-1.5253817,8.1654414e-8,94.702823,16.976669)"
       cx="19.091883"
       cy="49.568542"
       fx="19.091883"
       fy="49.568542"
       r="7" />
    <radialGradient
       inkscape:collect="always"
       xlink:href="#linearGradient4429-8-2"
       id="radialGradient4829-1"
       gradientUnits="userSpaceOnUse"
       gradientTransform="matrix(1.2193623,1.2193623,-0.85714249,0.85714249,6.1402817,-47.6031)"
       cx="40.726189"
       cy="17.933647"
       fx="40.726189"
       fy="17.933647"
       r="5" />
    <linearGradient
       id="linearGradient4429-8-2">
      <stop
         id="stop4431-8-7"
         offset="0"
         style="stop-color:#91c8ff;stop-opacity:1;" />
      <stop
         style="stop-color:#5ca9f5;stop-opacity:1;"
         offset="0.28217158"
         id="stop4433-8-1" />
      <stop
         id="stop4435-0-7"
         offset="1"
         style="stop-color:#376dc0;stop-opacity:1;" />
    </linearGradient>
    <linearGradient
       inkscape:collect="always"
       xlink:href="#linearGradient4449-9-8"
       id="linearGradient3055-4"
       gradientUnits="userSpaceOnUse"
       x1="41"
       y1="18"
       x2="47.535534"
       y2="24.535534" />
    <linearGradient
       id="linearGradient4449-9-8">
      <stop
         style="stop-color:#376dc0;stop-opacity:1;"
         offset="0"
         id="stop4451-1-3" />
      <stop
         style="stop-color:#7ebeff;stop-opacity:1;"
         offset="1"
         id="stop4453-8-7" />
    </linearGradient>
  </defs>
  <metadata
     id="metadata13099">
    <rdf:RDF>
      <cc:Work
         rdf:about="">
        <dc:format>image/svg+xml</dc:format>
        <dc:type
           rdf:resource="http://purl.org/dc/dcmitype/StillImage" />
        <dc:title />
      </cc:Work>
    </rdf:RDF>
  </metadata>
  <path
     id="path6538"
     d="m 0,4 0,30 0,28 2,2 30,0 30,0 2,-2 L 64,34 64,4 32,4 0,4 z"
     style="color:#000000;fill:#aeb4c3;fill-opacity:1;fill-rule:nonzero;stroke:none;stroke-width:2.28571415;marker:none;visibility:visible;display:inline;overflow:visible;enable-background:accumulate"
     inkscape:connector-curvature="0" />
  <path
     inkscape:connector-curvature="0"
     style="color:#000000;fill:#e7ecf0;fill-opacity:1;fill-rule:nonzero;stroke:none;marker:none;visibility:visible;display:inline;overflow:visible;enable-background:accumulate"
     d="M 2,0 0,1 0,4 19.5625,4 39.125,4 64,4 64,1 62,0 39.125,0 19.5625,0 2,0 z"
     id="path6688" />
  <g
     id="g3043"
     inkscape:export-filename="folder.png"
     inkscape:export-xdpi="90"
     inkscape:export-ydpi="90"
     transform="translate(-0.62500009,0.082283)" />
  <g
     id="scalable"
     transform="matrix(1.0385892,0,0,1.0385892,1214.7222,1878.8121)"
     inkscape:label="#g3701"
     style="fill:#ffffff" />
  <path
     style="fill:#f2f5f7;fill-opacity:1;fill-rule:nonzero;stroke-width:1;stroke-linecap:butt;stroke-linejoin:miter;stroke-miterlimit:4;stroke-opacity:1;stroke-dasharray:none;stroke-dashoffset:0"
     d="M 0,3 0,6 2,4 z"
     id="path4298"
     inkscape:connector-curvature="0"
     sodipodi:nodetypes="cccc" />
  <path
     inkscape:connector-curvature="0"
     style="fill:#ee719a;fill-opacity:1;stroke:none"
     d="m 41.28125,0 0,4 L 64,4 64,1 62,0 41.28125,0 z"
     id="path3814" />
  <path
     style="fill:#9f254d;fill-opacity:1;stroke:none"
     d="M 41.28125 4 L 41.28125 4.125 C 45.261503 4.5018645 49.092604 6.1795137 52.125 8.78125 C 52.186678 8.8341688 52.251488 8.8838203 52.3125 8.9375 C 58.38976 13.257633 62.731832 19.864558 64 27.53125 L 64 4 L 41.28125 4 z M 64 36.9375 C 61.757833 50.492496 49.992858 61.348824 35.8125 60.8125 C 17.653275 60.125689 6.8474091 49.035725 0 41.15625 L 0 62 L 2 64 L 32 64 L 62 64 L 64 62 L 64 36.9375 z "
     id="path3011-1" />
  <path
     inkscape:connector-curvature="0"
     style="fill:#c2476f;fill-opacity:1;stroke:none;stroke-width:1;marker:none"
     id="path3028"
     d="M 64,6 62,4 64,3 z" />
  <g
     id="g3813"
     transform="translate(0,8.0000004)">
    <path
       inkscape:connector-curvature="0"
       style="color:#000000;fill:#224060;fill-opacity:1;fill-rule:nonzero;stroke:none;stroke-width:2;marker:none;visibility:visible;display:inline;overflow:visible;enable-background:accumulate"
       d="m 42,14 c 1.108,0 2,0.892 2,2 0,1.108 -0.892,2 -2,2 l 11,0 c 1.108,0 2,-0.892 2,-2 0,-1.108 -0.892,-2 -2,-2 l -11,0 z"
       id="rect4415" />
    <path
       style="color:#000000;fill:#1f78ec;fill-opacity:1;fill-rule:nonzero;stroke:none;stroke-width:2.79999995;marker:none;visibility:visible;display:inline;overflow:visible;enable-background:accumulate"
       d="m 11,14 31,0 c 1.108,0 2,0.892 2,2 0,1.108 -0.892,2 -2,2 L 11,18 C 9.8919999,18 9,17.108 9,16 9,14.892 9.8919999,14 11,14 z"
       id="rect4455"
       inkscape:connector-curvature="0"
       sodipodi:nodetypes="sssssss" />
    <g
       id="g4236"
       transform="translate(1,-2)">
      <rect
         inkscape:transform-center-x="-2.8284257"
         transform="matrix(0.70710678,-0.70710678,0.70710678,0.70710678,0,0)"
         inkscape:transform-center-y="2.8284263"
         ry="7"
         rx="7"
         y="37.547726"
         x="12.091883"
         height="24.041634"
         width="14"
         id="rect5301"
         style="color:#000000;fill:#00386a;fill-opacity:0.12712624;fill-rule:nonzero;stroke:none;stroke-width:2;marker:none;visibility:visible;display:inline;overflow:visible;enable-background:accumulate" />
      <path
         sodipodi:type="arc"
         style="color:#000000;fill:#3b89f0;fill-opacity:1;fill-rule:nonzero;stroke:none;stroke-width:2;marker:none;visibility:visible;display:inline;overflow:visible;enable-background:accumulate"
         id="path3821"
         sodipodi:cx="44"
         sodipodi:cy="21"
         sodipodi:rx="5"
         sodipodi:ry="5"
         d="m 49,21 c 0,2.761424 -2.238576,5 -5,5 -2.761424,0 -5,-2.238576 -5,-5 0,-2.761424 2.238576,-5 5,-5 2.761424,0 5,2.238576 5,5 z"
         transform="matrix(1.4,0,0,1.4,-16.6,-11.4)" />
    </g>
  </g>
  <g
     id="use3819-9"
     transform="translate(0,25)">
    <rect
       style="color:#000000;fill:#224060;fill-opacity:1;fill-rule:nonzero;stroke:none;stroke-width:2;marker:none;visibility:visible;display:inline;overflow:visible;enable-background:accumulate"
       id="rect4377"
       width="46"
       height="4"
       x="9"
       y="14"
       rx="1.9999999"
       ry="2" />
    <g
       transform="translate(-27,-2)"
       id="g4381">
      <rect
         style="color:#000000;fill:#00386a;fill-opacity:0.12712624;fill-rule:nonzero;stroke:none;stroke-width:2;marker:none;visibility:visible;display:inline;overflow:visible;enable-background:accumulate"
         id="rect4383"
         width="14"
         height="24.041634"
         x="12.091883"
         y="37.547726"
         rx="7"
         ry="7"
         inkscape:transform-center-y="2.8284263"
         transform="matrix(0.70710678,-0.70710678,0.70710678,0.70710678,0,0)"
         inkscape:transform-center-x="-2.8284257" />
      <path
         transform="matrix(1.4,0,0,1.4,-16.6,-11.4)"
         d="m 49,21 c 0,2.761424 -2.238576,5 -5,5 -2.761424,0 -5,-2.238576 -5,-5 0,-2.761424 2.238576,-5 5,-5 2.761424,0 5,2.238576 5,5 z"
         sodipodi:ry="5"
         sodipodi:rx="5"
         sodipodi:cy="21"
         sodipodi:cx="44"
         id="path4385"
         style="color:#000000;fill:#5f82ad;fill-opacity:1;fill-rule:nonzero;stroke:none;stroke-width:2;marker:none;visibility:visible;display:inline;overflow:visible;enable-background:accumulate"
         sodipodi:type="arc" />
    </g>
  </g>
</svg>

<svg xmlns="http://www.w3.org/2000/svg" xmlns:xlink="http://www.w3.org/1999/xlink" viewBox="0 0 64 64"><g color="#000"><path d="m0 4v30 28l2 2h30 30l2-2v-28-30h-32-32" fill="#aeb4c3"/><path d="m2 0l-2 1v3h19.563 19.563 24.875v-3l-2-1h-22.875-19.563-17.563" fill="#e7ecf0"/></g><path d="m0 3v3l2-2z" fill="#f2f5f7"/><path d="m41.28 0v4h22.719v-3l-2-1h-20.719" fill="#ee719a"/><path d="m41.28 4v.125c3.98.377 7.811 2.055 10.844 4.656.062.053.126.103.188.156 6.077 4.32 10.419 10.927 11.688 18.594v-23.531h-22.719m22.719 32.938c-2.242 13.555-14.01 24.411-28.19 23.875-18.16-.687-28.965-11.777-35.813-19.656v20.844l2 2h30 30l2-2v-25.06" fill="#9f254d"/><path d="m64 6l-2-2 2-1z" fill="#c2476f"/><g transform="translate(0 8)"><g color="#000"><path d="m42 14c1.108 0 2 .892 2 2 0 1.108-.892 2-2 2h11c1.108 0 2-.892 2-2 0-1.108-.892-2-2-2h-11" fill="#224060"/><path d="m11 14h31c1.108 0 2 .892 2 2 0 1.108-.892 2-2 2h-31c-1.108 0-2-.892-2-2 0-1.108.892-2 2-2" fill="#1f78ec"/></g><g transform="translate(1-2)"><rect transform="matrix(.70711-.70711.70711.70711 0 0)" rx="7" y="37.548" x="12.09" height="24.04" width="14" fill="#00386a" fill-opacity=".127" color="#000" id="0"/><path d="m49 21c0 2.761-2.239 5-5 5-2.761 0-5-2.239-5-5 0-2.761 2.239-5 5-5 2.761 0 5 2.239 5 5" transform="matrix(1.4 0 0 1.4-16.6-11.4)" fill="#3b89f0" color="#000"/></g></g><g transform="translate(0 25)"><rect width="46" height="4" x="9" y="14" rx="2" fill="#224060" color="#000"/><g transform="translate(-27-2)"><use xlink:href="#0"/><path transform="matrix(1.4 0 0 1.4-16.6-11.4)" d="m49 21c0 2.761-2.239 5-5 5-2.761 0-5-2.239-5-5 0-2.761 2.239-5 5-5 2.761 0 5 2.239 5 5" fill="#5f82ad" color="#000"/></g></g></svg>
